dist/svg/u1F36B.svg

<?xml version="1.0" encoding="UTF-8"?><svg id="Layer_1" xmlns="http://www.w3.org/2000/svg" viewBox="0 0 40 40"><g><rect x="14.17054" y="4.71275" width="21.10808" height="21.12533" rx="1.58458" ry="1.58458" transform="translate(31.40616 43.55968) rotate(-135)" style="fill:#8b3900;"/><path d="M17.08,11.06978l-3.92085,3.92085c-.19166,.19166-.19166,.50528,0,.69694l3.9809,3.9809c.06338,.06338,.0993,.14915,.09999,.23879l.01565,2.03368c0,.2965-.35848,.44498-.56813,.23533l-5.76921-5.76921c-.62162-.62162-.62162-1.62946,0-2.25108l5.71378-5.71378c.23011-.23011,.62356-.06714,.62356,.25829l-.00069,1.94701c-.00006,.1584-.063,.31029-.17501,.42229Z" style="fill:#632800;"/><path d="M24.71858,27.41219v2.13607c-.4073,0-.81459-.15557-1.12534-.46632l-5.74633-5.74633c-.32652-.32652-.32652-.8559,0-1.18242l6.24811-6.24811c.23011-.23011,.62356-.06714,.62356,.25829v1.93638c0,.18647-.07407,.3653-.20593,.49715l-3.88984,3.88984c-.18365,.18365-.18365,.48139,0,.66504l3.97934,3.97934c.07455,.07455,.11643,.17566,.11643,.28108Z" style="fill:#632800;"/><path d="M24.71858,1.01516V3.05125c0,.24327-.09664,.47658-.26866,.6486l-3.82691,3.82691c-.18365,.18365-.18365,.48139,0,.66504l3.82691,3.82691c.17202,.17202,.26866,.40533,.26866,.6486v1.8055c0,.29843-.36081,.44788-.57184,.23686l-6.27862-6.27862c-.33824-.33824-.33824-.88663,0-1.22486L23.59324,1.48109c.31075-.31075,.71805-.46593,1.12534-.46593Z" style="fill:#632800;"/><path d="M32.19353,8.68839v1.84742c-.0002,.24317-.09671,.47642-.26873,.64844l-3.81019,3.81019c-.18351,.18351-.18351,.48118,.0002,.66489l3.81019,3.81019c.17202,.17202,.26853,.40528,.26853,.64864v1.80541c0,.29846-.36088,.44808-.57194,.23702l-6.27851-6.27851c-.33829-.33829-.33829-.88685,0-1.22514l6.22698-6.22698c.22989-.22989,.62347-.06698,.62347,.25843Z" style="fill:#632800;"/><path d="M4.95232,17.7403H22.5517c.96825,0,1.75435,.7861,1.75435,1.75435v15.26104H3.19797v-15.26104c0-.96825,.7861-1.75435,1.75435-1.75435Z" transform="translate(4.91601 54.53226) rotate(-135)" style="fill:#d12030;"/><polygon points="23.81444 31.11123 20.59949 23.73812 11.87395 20.02888 10.03143 15.0429 12.30502 12.76931 27.23069 27.69498 23.81444 31.11123" style="fill:#d5d5d5;"/></g><rect width="40" height="40" style="fill:none;"/></svg>

<svg id="Layer_1" data-name="Layer 1" xmlns="http://www.w3.org/2000/svg" viewBox="0 0 40 40"><defs><style>.cls-1{fill:#8b3900;}.cls-2{fill:#632800;}.cls-3{fill:#d12030;}.cls-4{fill:#d5d5d5;}.cls-5{fill:none;}</style></defs><rect class="cls-1" x="14.171" y="4.713" width="21.108" height="21.125" rx="1.585" transform="translate(31.406 43.56) rotate(-135)"/><path class="cls-2" d="M17.08,11.07l-3.921,3.921a.494.494,0,0,0,0,.7l3.981,3.98a.347.347,0,0,1,.1.239l.016,2.034a.333.333,0,0,1-.568.235l-5.77-5.769a1.593,1.593,0,0,1,0-2.251l5.714-5.714a.366.366,0,0,1,.624.258v1.947A.6.6,0,0,1,17.08,11.07Z"/><path class="cls-2" d="M24.719,27.412v2.136a1.586,1.586,0,0,1-1.126-.466l-5.746-5.746a.836.836,0,0,1,0-1.183L24.1,15.905a.366.366,0,0,1,.624.258V18.1a.7.7,0,0,1-.206.5l-3.89,3.89a.47.47,0,0,0,0,.665L24.6,27.131A.4.4,0,0,1,24.719,27.412Z"/><path class="cls-2" d="M24.719,1.015V3.051a.917.917,0,0,1-.269.649L20.623,7.527a.47.47,0,0,0,0,.665l3.827,3.827a.917.917,0,0,1,.269.648v1.806a.335.335,0,0,1-.572.237L17.868,8.431a.867.867,0,0,1,0-1.225l5.725-5.725A1.586,1.586,0,0,1,24.719,1.015Z"/><path class="cls-2" d="M32.194,8.688v1.848a.921.921,0,0,1-.269.648l-3.81,3.81a.47.47,0,0,0,0,.665l3.81,3.811a.917.917,0,0,1,.269.648v1.806a.335.335,0,0,1-.572.237l-6.279-6.279a.867.867,0,0,1,0-1.225L31.57,8.43A.366.366,0,0,1,32.194,8.688Z"/><path class="cls-3" d="M4.952,17.74h17.6a1.754,1.754,0,0,1,1.754,1.754V34.756a0,0,0,0,1,0,0H3.2a0,0,0,0,1,0,0V19.495A1.754,1.754,0,0,1,4.952,17.74Z" transform="translate(4.916 54.532) rotate(-135)"/><polygon class="cls-4" points="23.814 31.111 20.599 23.738 11.874 20.029 10.031 15.043 12.305 12.769 27.231 27.695 23.814 31.111"/><rect class="cls-5" width="40" height="40"/></svg>
